X:0058
T:Irish Billy.
M:6/8
L:1/8
Q:3/8=120
I: :: ::
% G A B c d e f g a
Z:Jack Campin * www.campin.me.uk * 2009
K:A Minor
A2B c2d|edc B3|A2B c2d|efd ecA |
A2B c2d|edc B3|G2A B2c|dge dBG:|
a2e g2d|edc B3|A2B c2d|efd ecA |
afa geg|fdf g3|G2A B2c|dge dBG:|
<end>
<start>
